src/assets/icon-settings.svg

<svg xmlns="http://www.w3.org/2000/svg" width="36" height="36" viewBox="0 0 36 36">
  <g fill="none" transform="translate(6 6)">
    <path stroke="currentColor" stroke-linecap="round" stroke-linejoin="round" stroke-width="1.5" d="M9.64610094,3.62642206 C11.6989078,1.92580375 12.8308515,2.24053276 14.1423355,2.4894084 L14.1423355,2.4894084 L14.367,3.605 L14.4988803,3.64444523 C15.2264057,3.8666095 15.7674951,4.09525768 16.2614608,4.3677873 L16.385,4.438 L17.2821549,3.84437391 C17.7695803,4.14700579 18.2252036,4.48840744 18.6348147,4.85972674 L18.9331737,5.14368747 C19.416914,5.62743785 19.8572589,6.18619976 20.2343142,6.80145839 L20.2343142,6.80145839 L19.631,7.706 L19.7230342,7.87696128 C20.0610453,8.52088828 20.2748205,9.05619946 20.4302257,9.59535331 L20.475,9.761 L21.4997075,9.96664526 C21.6333748,10.5281056 21.7145177,11.0926561 21.7407033,11.644837 L21.75,12.0564117 C21.75,12.7360303 21.665439,13.444893 21.5013077,14.1444555 L21.5013077,14.1444555 L20.437,14.357 L20.3956135,14.4955878 C20.1663582,15.228215 19.9288495,15.7752929 19.6467321,16.2755769 L19.572,16.403 L20.1553889,17.2800489 C19.8505358,17.7716336 19.509101,18.2274094 19.138269,18.6365136 L18.8547454,18.9344211 C18.3703875,19.418789 17.8108285,19.8596291 17.1979226,20.2338867 L17.1979226,20.2338867 L16.275,19.619 L16.1096702,19.7062503 C15.4728554,20.0328154 14.9440701,20.2388314 14.4097364,20.3888223 L14.246,20.431 L14.0305171,21.5018421 C13.4680577,21.6329769 12.9058064,21.7131171 12.3585463,21.7399278 L11.951143,21.75 C11.2553116,21.75 10.5529622,21.6653594 9.8543731,21.497998 L9.8543731,21.497998 L9.624,20.362 L9.50195828,20.3241088 C8.79655764,20.0975757 8.27123489,19.8672981 7.78697636,19.5947982 L7.666,19.524 L6.72086788,20.1549848 C6.20629742,19.8372963 5.73085495,19.478833 5.31197637,19.091336 L5.06757637,18.8554476 C4.58305866,18.3746185 4.14414207,17.8140167 3.76516203,17.2011196 L3.76516203,17.2011196 L4.427,16.205 L4.34930855,16.0558034 C4.03365634,15.4393141 3.83437825,14.9306465 3.68576732,14.4171235 L3.642,14.262 L2.49943636,14.0325533 C2.36614761,13.4675267 2.28532715,12.9018463 2.25925543,12.3532421 L2.25000267,11.9452678 C2.2481965,11.2682832 2.3327511,10.5622086 2.50222931,9.85571329 L2.50222931,9.85571329 L3.681,9.616 L3.7165451,9.50106595 C3.93593139,8.79889013 4.15777763,8.27962522 4.41977827,7.80281073 L4.486,7.684 L3.84478429,6.71997398 C4.16471874,6.20353596 4.52333019,5.72826835 4.91014085,5.31015449 L5.14552732,5.0662725 C5.62835516,4.58158464 6.18878523,4.1403651 6.80192539,3.76586474 L6.80192539,3.76586474 L7.777,4.415 L7.90425762,4.34670719 C8.49444443,4.03429054 8.96942263,3.836831 9.44292844,3.68761339 Z" />
    <ellipse cx="12" cy="12" stroke="currentColor" stroke-linecap="round" stroke-linejoin="round" stroke-width="2" opacity=".7" rx="3" ry="3" />
  </g>
</svg>

<svg viewBox="0 0 36 36" xmlns="http://www.w3.org/2000/svg">
<g transform="translate(6 6)" fill="none" stroke="currentColor" stroke-linecap="round" stroke-linejoin="round">
<path d="m9.6461 3.6264c2.0528-1.7006 3.1848-1.3859 4.4962-1.137l0.22466 1.1156 0.13188 0.039445c0.72753 0.22216 1.2686 0.45081 1.7626 0.72334l0.12354 0.070213 0.89715-0.59363c0.48743 0.30263 0.94305 0.64403 1.3527 1.0154l0.29836 0.28396c0.48374 0.48375 0.92409 1.0425 1.3011 1.6578l-0.60331 0.90454 0.092034 0.17096c0.33801 0.64393 0.55179 1.1792 0.70719 1.7184l0.044774 0.16565 1.0247 0.20565c0.13367 0.56146 0.21481 1.126 0.241 1.6782l0.0092967 0.41157c0 0.67962-0.084561 1.3885-0.24869 2.088l-1.0643 0.21254-0.041386 0.13859c-0.22926 0.73263-0.46676 1.2797-0.74888 1.78l-0.074732 0.12742 0.58339 0.87705c-0.30485 0.49158-0.64629 0.94736-1.0171 1.3565l-0.28352 0.29791c-0.48436 0.48437-1.0439 0.92521-1.6568 1.2995l-0.92292-0.61489-0.16533 0.08725c-0.63681 0.32657-1.1656 0.53258-1.6999 0.68257l-0.16374 0.042178-0.21548 1.0708c-0.56246 0.13113-1.1247 0.21128-1.672 0.23809l-0.4074 0.010072c-0.69583 0-1.3982-0.084641-2.0968-0.252l-0.23037-1.136-0.12204-0.037891c-0.7054-0.22653-1.2307-0.45681-1.715-0.72931l-0.12098-0.070798-0.94513 0.63098c-0.51457-0.31769-0.99001-0.67615-1.4089-1.0636l-0.2444-0.23589c-0.48452-0.48083-0.92343-1.0414-1.3024-1.6543l0.66184-0.99612-0.077691-0.1492c-0.31565-0.61649-0.51493-1.1252-0.66354-1.6387l-0.043767-0.15512-1.1426-0.22945c-0.13329-0.56503-0.21411-1.1307-0.24018-1.6793l-0.0092528-0.40797c-0.0018062-0.67698 0.082748-1.3831 0.25223-2.0896l1.1788-0.23971 0.035545-0.11493c0.21939-0.70218 0.44123-1.2214 0.70323-1.6983l0.066222-0.11881-0.64122-0.96403c0.31993-0.51644 0.67855-0.99171 1.0654-1.4098l0.23539-0.24388c0.48283-0.48469 1.0433-0.92591 1.6564-1.3004l0.97507 0.64914 0.12726-0.068293c0.59019-0.31242 1.0652-0.50988 1.5387-0.65909z" stroke-width="1.5"/>
<ellipse cx="12" cy="12" rx="3" ry="3" opacity=".7" stroke-width="2"/>
</g>
</svg>
